svg/UnitedNations-Flags/flag-madeira.svg

<svg height="256" viewBox="0 0 180 120" width="256" xmlns="http://www.w3.org/2000/svg" xmlns:xlink="http://www.w3.org/1999/xlink"><path fill="#004b8f" d="m0 0h180v120h-180z"/><path fill="#ffca13" d="m60 0h60v120h-60z"/><path d="m66 33h48l-16 5v44l16 5h-48l16-5v-44l-16-5" id="0" fill="#c00"/><use height="120" transform="matrix(0 1-1 0 150-30)" width="180" xlink:href="#0"/><path d="m86 38h8v44h-8v-44m-18 18h44v8h-44v-8" fill="#fff"/></svg>

<?xml version="1.0" encoding="UTF-8" standalone="no"?>
<svg height="256" id="svg3044" inkscape:output_extension="org.inkscape.output.svg.inkscape" inkscape:version="0.46" sodipodi:docname="Flag_of_Madeira.svg" sodipodi:version="0.32" version="1.0" viewBox="0 0 180 120" width="256" xmlns="http://www.w3.org/2000/svg" xmlns:cc="http://creativecommons.org/ns#" xmlns:dc="http://purl.org/dc/elements/1.1/" xmlns:inkscape="http://www.inkscape.org/namespaces/inkscape" xmlns:rdf="http://www.w3.org/1999/02/22-rdf-syntax-ns#" xmlns:sodipodi="http://sodipodi.sourceforge.net/DTD/sodipodi-0.dtd" xmlns:svg="http://www.w3.org/2000/svg" xmlns:xlink="http://www.w3.org/1999/xlink">
  <metadata>
    <rdf:RDF xmlns:cc="http://web.resource.org/cc/" xmlns:dc="http://purl.org/dc/elements/1.1/" xmlns:rdf="http://www.w3.org/1999/02/22-rdf-syntax-ns#">
      <cc:Work rdf:about="">
        <dc:title></dc:title>
        <dc:description></dc:description>
        <dc:subject>
          <rdf:Bag>
            <rdf:li>unsorted</rdf:li>
          </rdf:Bag>
        </dc:subject>
        <dc:publisher>
          <cc:Agent rdf:about="http://www.openclipart.org/">
            <dc:title>Open Clip Art Library, Source: Wikimedia Commons, Source: Wikimedia Commons, Source: Wikimedia Commons, Source: Wikimedia Commons</dc:title>
          </cc:Agent>
        </dc:publisher>
        <dc:creator>
          <cc:Agent>
            <dc:title></dc:title>
          </cc:Agent>
        </dc:creator>
        <dc:rights>
          <cc:Agent>
            <dc:title></dc:title>
          </cc:Agent>
        </dc:rights>
        <dc:date></dc:date>
        <dc:format>image/svg+xml</dc:format>
        <dc:type rdf:resource="http://purl.org/dc/dcmitype/StillImage"/>
        <cc:license rdf:resource="http://en.wikipedia.org/wiki/Public_domain"/>
        <dc:language>en</dc:language>
      </cc:Work>
    </rdf:RDF>
  </metadata>
  <defs id="defs3056">
    <inkscape:perspective id="perspective3060" inkscape:persp3d-origin="600 : 266.66667 : 1" inkscape:vp_x="0 : 400 : 1" inkscape:vp_y="0 : 1000 : 0" inkscape:vp_z="1200 : 400 : 1" sodipodi:type="inkscape:persp3d"/>
  </defs>
  <sodipodi:namedview bordercolor="#666666" borderopacity="1.0" gridtolerance="10.0" guidetolerance="10.0" id="base" inkscape:current-layer="svg3044" inkscape:cx="600" inkscape:cy="400" inkscape:pageopacity="0.0" inkscape:pageshadow="2" inkscape:window-height="821" inkscape:window-width="935" inkscape:window-x="-4" inkscape:window-y="0" inkscape:zoom="0.46583333" objecttolerance="10.0" pagecolor="#ffffff" showgrid="false"/>
  <rect height="120" id="rect3046" style="fill:#004b8f" width="180" x="0" y="0"/>
  <rect height="120" id="rect3048" style="fill:#ffca13" width="60" x="60" y="0"/>
  <path d="M 66,33 L 114,33 L 98,38 L 98,82 L 114,87 L 66,87 L 82,82 L 82,38 L 66,33 z" id="1" style="fill:#cc0000"/>
  <use height="120" id="use3051" transform="matrix(0,1,-1,0,150,-30)" width="180" x="0" xlink:href="#1" y="0"/>
  <path d="M 86,38 L 94,38 L 94,82 L 86,82 L 86,38 z M 68,56 L 112,56 L 112,64 L 68,64 L 68,56 z" id="path3053" style="fill:#ffffff"/>
</svg>
